src/images/pl-dark.svg

<svg width="160" height="144" viewBox="0 0 160 144" fill="none" xmlns="http://www.w3.org/2000/svg">
<path d="M12.4404 17.1442L12.4532 17.1378L12.4656 17.1307L40.9486 0.791618C41.4804 0.627126 42.217 0.617798 42.9907 0.80076L109.91 39.2295C110.23 39.4786 110.35 39.7729 110.35 40.0009C110.35 40.2208 110.241 40.4376 109.963 40.5765L109.951 40.5829L109.938 40.59L81.4096 56.9552L81.3951 56.9636L81.3811 56.9729C81.1498 57.1271 80.8102 57.2206 80.4421 57.2206C80.074 57.2206 79.7344 57.1271 79.5031 56.9729L79.4892 56.9636L79.4747 56.9553L12.4941 18.4912C12.1742 18.2421 12.0533 17.9478 12.0533 17.7198C12.0533 17.4998 12.1627 17.283 12.4404 17.1442Z" fill="#070B16" stroke="url(#paint0_linear_602_5501)"/>
<path d="M117.292 0.765435L117.306 0.757074L117.32 0.747753C117.794 0.431798 118.475 0.394699 119.24 0.772889L148.169 17.3356C148.489 17.5847 148.61 17.8789 148.61 18.1068C148.61 18.3268 148.5 18.5436 148.223 18.6824L148.211 18.6881L148.2 18.6945L119.672 34.8385L119.656 34.8475L119.64 34.8577C119.409 35.0119 119.07 35.1054 118.701 35.1054C118.333 35.1054 117.994 35.0119 117.762 34.8577L117.747 34.8474L117.731 34.8383L88.7903 18.4901C88.4713 18.2412 88.3508 17.9474 88.3508 17.7198C88.3508 17.4998 88.4601 17.283 88.7378 17.1442L88.7506 17.1378L88.763 17.1307L117.292 0.765435Z" fill="#070B16" stroke="url(#paint1_linear_602_5501)"/>
<path d="M84.9487 99.1949L84.9339 99.2033L84.9198 99.2128C84.8045 99.2896 84.5823 99.3056 84.3257 99.1477C84.0761 98.994 83.9279 98.7512 83.9279 98.523V65.5714C83.9279 65.0998 84.2605 64.3614 84.841 63.7605L113.308 47.651L113.324 47.642L113.34 47.6319C113.455 47.5551 113.677 47.5391 113.934 47.697C114.183 47.8506 114.331 48.0935 114.331 48.3216V81.9367C114.331 82.2173 114.194 82.4705 113.944 82.5952L113.932 82.6015L113.92 82.6085L84.9487 99.1949Z" fill="#070B16" stroke="url(#paint2_linear_602_5501)"/>
<path d="M123.017 42.1342L123.029 42.1279L123.042 42.1207L151.556 25.7634C152.066 25.5176 152.591 25.8747 152.591 26.4276V103.388C152.591 104.111 152.232 104.807 151.54 105.153L151.528 105.159L151.516 105.166L84.9624 143.196C84.4523 143.442 83.9279 143.085 83.9279 142.532V109.581C83.9279 108.858 84.2866 108.162 84.9784 107.816L84.9908 107.81L85.0029 107.803L120.608 87.4572L120.623 87.4487L120.638 87.4392C121.028 87.1788 121.408 86.797 121.693 86.3536C121.977 85.9115 122.187 85.3762 122.187 84.8116V43.6774V43.5963L122.161 43.5193C122.046 43.1716 122.27 42.5075 123.017 42.1342Z" fill="#070B16" stroke="url(#paint3_linear_602_5501)"/>
<path d="M76.2933 99.1833V99.1866C76.2933 99.4574 76.025 99.7046 75.6658 99.6092L40.5516 79.5124L40.5394 79.5054L40.5269 79.4991C39.2712 78.8713 38.0341 79.8399 38.0341 81.0521V120.859C38.0341 121.088 37.8859 121.33 37.6362 121.484C37.3796 121.642 37.1574 121.626 37.0422 121.549L37.0282 121.54L37.0136 121.531L8.5004 105.175C8.23152 104.993 7.95375 104.715 7.74461 104.39C7.53122 104.058 7.40936 103.708 7.40936 103.388V25.9853C7.40936 25.7572 7.55756 25.5143 7.80722 25.3607C8.06382 25.2028 8.28601 25.2188 8.40122 25.2956L8.41541 25.305L8.4302 25.3135L75.6444 63.7848C76.1447 64.1263 76.5138 64.8376 76.5145 65.5695C76.5145 65.5701 76.5145 65.5708 76.5145 65.5715L76.2933 99.1833Z" fill="#070B16" stroke="url(#paint4_linear_602_5501)"/>
<path d="M75.5227 143.443L75.508 143.433L75.4927 143.425L46.7591 127.069C46.4904 126.886 46.2129 126.609 46.0039 126.284C45.7905 125.952 45.6687 125.602 45.6687 125.282V92.1097V92.0602L45.659 92.0117C45.621 91.822 45.6459 91.6958 45.6826 91.6152C45.7194 91.5343 45.7825 91.4667 45.8757 91.4166C46.0699 91.312 46.389 91.2927 46.7033 91.4457L75.4241 107.795C75.6928 107.977 75.9703 108.254 76.1793 108.579C76.3927 108.911 76.5145 109.261 76.5145 109.581V142.753C76.5145 142.982 76.3663 143.224 76.1167 143.378C75.8601 143.536 75.6379 143.52 75.5227 143.443Z" fill="#070B16" stroke="url(#paint5_linear_602_5501)"/>
<defs>
<linearGradient id="paint0_linear_602_5501" x1="11.5533" y1="0.165894" x2="114.677" y2="8.13908" gradientUnits="userSpaceOnUse">
<stop stop-color="#FF5274"/>
<stop offset="1" stop-color="#6446FA"/>
</linearGradient>
<linearGradient id="paint1_linear_602_5501" x1="87.8508" y1="0" x2="151.473" y2="4.90544" gradientUnits="userSpaceOnUse">
<stop stop-color="#FF5274"/>
<stop offset="1" stop-color="#6446FA"/>
</linearGradient>
<linearGradient id="paint2_linear_602_5501" x1="83.4279" y1="47.0751" x2="116.213" y2="47.9507" gradientUnits="userSpaceOnUse">
<stop stop-color="#FF5274"/>
<stop offset="1" stop-color="#6446FA"/>
</linearGradient>
<linearGradient id="paint3_linear_602_5501" x1="83.4279" y1="25.181" x2="156.158" y2="27.0955" gradientUnits="userSpaceOnUse">
<stop stop-color="#FF5274"/>
<stop offset="1" stop-color="#6446FA"/>
</linearGradient>
<linearGradient id="paint4_linear_602_5501" x1="6.90936" y1="24.7388" x2="80.0754" y2="27.0996" gradientUnits="userSpaceOnUse">
<stop stop-color="#FF5274"/>
<stop offset="1" stop-color="#6446FA"/>
</linearGradient>
<linearGradient id="paint5_linear_602_5501" x1="45.1401" y1="90.8345" x2="78.4169" y2="91.7285" gradientUnits="userSpaceOnUse">
<stop stop-color="#FF5274"/>
<stop offset="1" stop-color="#6446FA"/>
</linearGradient>
</defs>
</svg>

<svg width="160" height="144" fill="none" xmlns="http://www.w3.org/2000/svg"><path d="m12.44 17.144.013-.006.013-.007L40.949.79c.532-.164 1.268-.173 2.042.01L109.91 39.23c.32.249.441.543.441.77 0 .22-.11.438-.387.577l-.013.006-.013.007L81.41 56.955l-.015.009-.014.009c-.231.154-.57.248-.939.248-.368 0-.707-.094-.939-.248l-.014-.01-.014-.008-66.98-38.464c-.32-.249-.441-.543-.441-.771 0-.22.109-.437.386-.576Z" fill="#0A1024" stroke="url(#a)"/><path d="m117.292.765.014-.008.014-.01c.474-.315 1.155-.352 1.92.026l28.929 16.563c.32.249.441.543.441.77 0 .22-.11.438-.387.576l-.012.006-.011.007-28.528 16.144-.016.008-.016.01c-.231.155-.57.248-.939.248-.368 0-.707-.093-.938-.247l-.016-.01-.016-.01-28.94-16.348c-.32-.249-.44-.543-.44-.77 0-.22.11-.437.387-.576l.013-.006.012-.007L117.292.765Z" fill="#0A1024" stroke="url(#b)"/><path d="m84.949 99.195-.015.008-.014.01c-.115.077-.338.093-.594-.065-.25-.154-.398-.397-.398-.625V65.571c0-.471.333-1.21.913-1.81l28.468-16.11.015-.009.016-.01c.115-.077.337-.093.594.065.249.154.398.396.398.625v33.615c0 .28-.138.534-.388.658l-.012.007-.012.007-28.971 16.586Z" fill="#0A1024" stroke="url(#c)"/><path d="m123.017 42.134.012-.006.013-.007 28.515-16.358c.51-.245 1.034.112 1.034.665v76.96c0 .723-.359 1.419-1.051 1.765l-.012.006-.012.007-66.553 38.03c-.51.246-1.035-.111-1.035-.664v-32.951c0-.723.359-1.419 1.05-1.765l.013-.006.012-.007 35.605-20.346.015-.008.015-.01a3.8 3.8 0 0 0 1.055-1.085c.284-.442.494-.978.494-1.542V43.596l-.025-.077c-.116-.347.108-1.011.855-1.385Z" fill="#0A1024" stroke="url(#d)"/><path d="M76.293 99.183v.004c0 .27-.268.518-.627.422L40.552 79.512l-.013-.007-.012-.006c-1.256-.628-2.493.34-2.493 1.553v39.807c0 .229-.148.471-.398.625-.256.158-.479.142-.594.065l-.014-.009-.014-.009L8.5 105.175a2.805 2.805 0 0 1-.755-.785c-.214-.332-.336-.682-.336-1.002V25.985c0-.228.149-.47.398-.624.257-.158.48-.142.594-.065l.014.009.015.009 67.214 38.47c.5.342.87 1.054.87 1.786v.002l-.22 33.611Z" fill="#0A1024" stroke="url(#e)"/><path d="m75.523 143.443-.015-.01-.015-.008-28.734-16.356a2.817 2.817 0 0 1-.755-.785c-.213-.332-.335-.682-.335-1.002V92.06l-.01-.048c-.038-.19-.013-.316.024-.397.036-.08.1-.148.193-.198.194-.105.513-.124.827.029l28.721 16.348c.269.183.546.46.755.785.214.332.336.682.336 1.002v33.172c0 .229-.149.471-.398.625-.257.158-.48.142-.594.065Z" fill="#0A1024" stroke="url(#f)"/><defs><linearGradient id="a" x1="11.553" y1=".166" x2="114.678" y2="8.139" gradientUnits="userSpaceOnUse"><stop stop-color="#FF5274"/><stop offset="1" stop-color="#6446FA"/></linearGradient><linearGradient id="b" x1="87.851" y1="0" x2="151.473" y2="4.905" gradientUnits="userSpaceOnUse"><stop stop-color="#FF5274"/><stop offset="1" stop-color="#6446FA"/></linearGradient><linearGradient id="c" x1="83.428" y1="47.075" x2="116.213" y2="47.951" gradientUnits="userSpaceOnUse"><stop stop-color="#FF5274"/><stop offset="1" stop-color="#6446FA"/></linearGradient><linearGradient id="d" x1="83.428" y1="25.181" x2="156.158" y2="27.096" gradientUnits="userSpaceOnUse"><stop stop-color="#FF5274"/><stop offset="1" stop-color="#6446FA"/></linearGradient><linearGradient id="e" x1="6.909" y1="24.739" x2="80.076" y2="27.1" gradientUnits="userSpaceOnUse"><stop stop-color="#FF5274"/><stop offset="1" stop-color="#6446FA"/></linearGradient><linearGradient id="f" x1="45.14" y1="90.834" x2="78.417" y2="91.728" gradientUnits="userSpaceOnUse"><stop stop-color="#FF5274"/><stop offset="1" stop-color="#6446FA"/></linearGradient></defs></svg>
